Suru++-Ubuntu/apps/scalable/signon-ui.svg

<svg width="256" height="256" version="1.1" viewBox="0 0 67.73 67.73" xmlns="http://www.w3.org/2000/svg" xmlns:xlink="http://www.w3.org/1999/xlink">
 <defs>
  <filter id="filter1132" x="-.02" y="-.03" width="1.046" height="1.05" style="color-interpolation-filters:sRGB">
   <feGaussianBlur stdDeviation="2.32"/>
  </filter>
  <filter id="filter4569" x="-.01" y="-.01" width="1.023" height="1.025" style="color-interpolation-filters:sRGB">
   <feGaussianBlur stdDeviation="1.16"/>
  </filter>
  <linearGradient id="linearGradient1108-7" x1="296" x2="296" y1="-212" y2="236" gradientUnits="userSpaceOnUse">
   <stop style="stop-color:#ffffff" offset="0"/>
   <stop style="stop-color:#ffffff;stop-opacity:.09803922" offset=".125"/>
   <stop style="stop-color:#000000;stop-opacity:.09803922" offset=".925"/>
   <stop style="stop-color:#000000;stop-opacity:.49803922" offset="1"/>
  </linearGradient>
  <clipPath id="clipPath1082-3-93">
   <path d="M 361.9375,-212 C 507.2348,-212 528,-191.28677 528,-46.125 V 70.125 C 528,215.28618 507.2348,236 361.9375,236 H 214.0625 C 68.7652,236 48,215.28618 48,70.125 V -46.125 C 48,-191.28677 68.7652,-212 214.0625,-212 Z" style="fill:#8c59d9"/>
  </clipPath>
  <filter id="filter1655" x="-.04" y="-.06" width="1.083" height="1.115" style="color-interpolation-filters:sRGB">
   <feGaussianBlur stdDeviation=".728"/>
  </filter>
 </defs>
 <g transform="translate(0,-229.26666)">
  <path transform="matrix(.26458334 0 0 .26458334 -6.9934685 221.97262)" d="m188.96876 43.999995c72.64865 0 83.03125 10.356615 83.03125 82.937505v58.125c0 72.58059-10.3826 82.9375-83.03125 82.9375h-73.9375c-72.648654 0-83.031254-10.35691-83.031254-82.9375v-58.125c0-72.58089 10.3826-82.937505 83.031254-82.937505z" style="filter:url(#filter4569);opacity:.1"/>
  <path transform="matrix(.26458334 0 0 .26458334 -6.9934685 221.97262)" d="m188.96876 45.999995c72.64865 0 83.03125 10.356615 83.03125 82.937505v58.125c0 72.58059-10.3826 82.9375-83.03125 82.9375h-73.9375c-72.648654 0-83.031254-10.35691-83.031254-82.9375v-58.125c0-72.58089 10.3826-82.937505 83.031254-82.937505z" style="filter:url(#filter1132);opacity:.2"/>
  <path d="m43.004516 233.61429c19.221623 0 21.968686 2.74018 21.968686 21.94388v15.37891c0 19.20362-2.747063 21.94387-21.968686 21.94387h-19.562632c-19.221623 0-21.968686-2.74025-21.968686-21.94387v-15.37891c0-19.2037 2.7470631-21.94388 21.968686-21.94388z" style="fill:#a0a0a0"/>
  <path transform="matrix(.26458333 0 0 .26458333 0 229.26666)" d="m5.5683594 128.16211v29.33203c0 9.07258 0.1620995 17.17296 0.5878906 24.40234 0.2128956 3.6147 0.4922654 7.01125 0.8496094 10.20313 0.3573439 3.19188 0.7931865 6.18021 1.3203125 8.97461s1.1449457 5.39612 1.8671871 7.81836c0.722242 2.42224 1.547543 4.66482 2.490235 6.74023 0.942691 2.07541 2.002931 3.98243 3.191406 5.73633 1.188475 1.75391 2.505252 3.35478 3.964844 4.8125 1.459591 1.45772 3.062317 2.77212 4.818359 3.95898 1.756042 1.18687 3.666314 2.24617 5.744141 3.1875 2.077826 0.94134 4.323102 1.7652 6.748047 2.48633 2.424944 0.72114 5.028775 1.33898 7.826171 1.86524 2.797397 0.52625 5.78724 0.96165 8.982422 1.31836 3.195182 0.3567 6.596543 0.63518 10.214844 0.84765 7.236602 0.42496 15.3447 0.58594 24.425781 0.58594h73.937501c9.08108 0 17.18918-0.16098 24.42578-0.58594 3.6183-0.21247 7.01771-0.49095 10.21289-0.84765 3.19518-0.35671 6.18503-0.79211 8.98242-1.31836 2.7974-0.52626 5.40318-1.1441 7.82813-1.86524 2.42494-0.72113 4.67022-1.54499 6.74805-2.48633 2.07782-0.94133 3.98809-2.00063 5.74414-3.1875 1.75604-1.18686 3.35681-2.50126 4.8164-3.95898s2.77832-3.05859 3.9668-4.8125c1.18847-1.7539 2.24676-3.66092 3.18945-5.73633s1.76995-4.31799 2.49219-6.74023 1.34006-5.02396 1.86719-7.81836c0.52712-2.7944 0.96297-5.78273 1.32031-8.97461s0.63671-6.58843 0.84961-10.20313c0.42579-7.22938 0.58789-15.32976 0.58789-24.40234v-29.33203h-240z" style="fill:#ffffff;opacity:.1"/>
  <path transform="matrix(.26458333 0 0 .26458333 0 229.26666)" d="m240.21094 216.46875c-0.775 1.55978-1.56047 3.10239-2.48633 4.46875-1.18848 1.7539-2.50525 3.35282-3.96484 4.81055-1.4596 1.45772-3.06232 2.77407-4.81836 3.96093-1.75605 1.18687-3.66632 2.24421-5.74414 3.18555-2.07783 0.94134-4.32311 1.76715-6.74805 2.48828-2.42495 0.72114-5.02878 1.33898-7.82617 1.86524-2.7974 0.52625-5.78724 0.96165-8.98243 1.31836-3.19518 0.3567-6.59654 0.63518-10.21484 0.84765-7.2366 0.42496-15.3447 0.58594-24.42578 0.58594h-37.67969v1.97656h35.71094c9.21884 0 17.44854-0.16397 24.79492-0.5957 3.67319-0.21581 7.1255-0.49692 10.36914-0.85938 3.24366-0.36245 6.27931-0.80507 9.11914-1.33984 2.83983-0.5348 5.48358-1.16367 7.94532-1.89648 2.46173-0.73282 4.74221-1.57079 6.85156-2.52735 2.10934-0.95663 4.0474-2.03216 5.83008-3.23828 1.78269-1.20612 3.40889-2.54404 4.89062-4.02539 1.48173-1.48139 2.81889-3.10632 4.02539-4.88867 1.2065-1.78231 2.28324-3.72103 3.24024-5.83008 0.04284-0.09443 0.0709-0.21152 0.11328-0.30664z" style="fill:#ffffff;opacity:.1"/>
  <path transform="matrix(.13229167 0 0 .13229167 -4.8768011 261.66012)" d="M 361.9375,-212 C 507.2348,-212 528,-191.28677 528,-46.125 V 70.125 C 528,215.28618 507.2348,236 361.9375,236 H 214.0625 C 68.7652,236 48,215.28618 48,70.125 V -46.125 C 48,-191.28677 68.7652,-212 214.0625,-212 Z" clip-path="url(#clipPath1082-3-93)" style="fill:none;opacity:.6;stroke-linecap:round;stroke-linejoin:round;stroke-width:8;stroke:url(#linearGradient1108-7)"/>
  <g transform="matrix(.98100004 0 0 .98100004 1.7859888e-7 12.616987)">
   <rect x="12.7" y="247.42" width="42.333" height="30.427" rx="1.027" ry="1.071" style="fill:#00132b;filter:url(#filter1655);opacity:.3"/>
   <rect x="12.7" y="247.42" width="42.333" height="30.427" rx="1.027" ry="1.071" style="fill:#a3dbf0;opacity:.7"/>
   <g transform="translate(.05602711 1.7237401)">
    <rect x="19.32" y="267.14" width="29.087" height="5.801" rx="1.058" ry="1.058" style="fill:#ffffff;opacity:.7"/>
    <path d="m21.035156 268.16109v3.96875h0.263672v-3.96875z" style="opacity:.8"/>
    <rect x="19.32" y="253.38" width="29.087" height="5.801" rx="1.058" ry="1.058" style="fill:#ffffff;opacity:.7"/>
    <path d="m21.035156 254.40267v3.96875h0.263672v-3.96875z" style="opacity:.8"/>
    <text x="18.86" y="251.84" style="font-size:10.583333px;letter-spacing:0px;line-height:1.25;word-spacing:0px" xml:space="preserve">
     <tspan x="18.86" y="251.84" style="font-family:'Overpass Mono';font-size:4.2333331px">Username</tspan>
    </text>
    <text x="18.86" y="265.07" style="font-size:10.583333px;letter-spacing:0px;line-height:1.25;word-spacing:0px" xml:space="preserve">
     <tspan x="18.86" y="265.07" style="font-family:'Overpass Mono';font-size:4.2333331px">Password</tspan>
    </text>
   </g>
   <path class="ColorScheme-Text" d="m38.594176 231.37498c-2.584035 0-3.06878 3.92556-1.614894 3.92556 1.453224 0 4.199213-3.92556 1.614894-3.92556zm-3.979089 0.60351c-0.04072-1.9e-4 -0.08523-2.2e-4 -0.131035 9e-3 -1.46428 0.18492-0.949363 2.66312-0.169796 2.70932 0.754818 0.0454 1.579902-2.71235 0.298988-2.7167zm-2.539529 0.91541c-0.08958-9e-3 -0.188582 0.0119-0.298988 0.0573-1.177018 0.48324-0.179048 2.47798 0.47986 2.3439 0.598063-0.12152 0.684062-2.34489-0.180872-2.40112zm-1.921253 1.63149c-0.102299 0-0.212309 0.0318-0.33036 0.11997-0.942115 0.70313 0.316762 2.40239 0.871112 2.13904 0.484896-0.23066 0.175551-2.23312-0.540752-2.25901zm5.564445 1.62043c-2.041356-0.035-4.734059 1.00109-5.193489 3.08213-0.497115 2.25151 2.047562 5.3762 4.702563 5.3762 1.306097 0 2.812985-1.19401 3.09505-2.70563 0.21523-1.15264-2.534832-0.6905-2.43618 0.072 0.118552 0.91422-0.66143 1.36625-1.426633 0.77698-2.435775-1.87618 4.033006-2.81304 3.606272-5.37619-0.132802-0.79791-1.122751-1.2045-2.347583-1.22548z" style="clip-rule:evenodd;fill-rule:evenodd;fill:#4c4c4c;image-rendering:optimizeQuality;shape-rendering:geometricPrecision"/>
  </g>
 </g>
</svg>

<svg xmlns="http://www.w3.org/2000/svg" xmlns:xlink="http://www.w3.org/1999/xlink" width="256" height="256" version="1.1" viewBox="0 0 67.73 67.73">
 <defs>
  <filter style="color-interpolation-filters:sRGB" id="filter1132" width="1.046" height="1.05" x="-.02" y="-.03">
   <feGaussianBlur stdDeviation="2.32"/>
  </filter>
  <filter style="color-interpolation-filters:sRGB" id="filter4569" width="1.023" height="1.025" x="-.01" y="-.01">
   <feGaussianBlur stdDeviation="1.16"/>
  </filter>
  <linearGradient id="linearGradient1108-7" x1="296" x2="296" y1="-212" y2="236" gradientUnits="userSpaceOnUse" xlink:href="#linearGradient1013"/>
  <linearGradient id="linearGradient1013">
   <stop offset="0" style="stop-color:#ffffff"/>
   <stop style="stop-color:#ffffff;stop-opacity:0.09803922" offset=".125"/>
   <stop style="stop-color:#000000;stop-opacity:0.09803922" offset=".925"/>
   <stop offset="1" style="stop-color:#000000;stop-opacity:0.49803922"/>
  </linearGradient>
  <clipPath id="clipPath1082-3-93" clipPathUnits="userSpaceOnUse">
   <path d="M 361.9375,-212 C 507.2348,-212 528,-191.28677 528,-46.125 V 70.125 C 528,215.28618 507.2348,236 361.9375,236 H 214.0625 C 68.7652,236 48,215.28618 48,70.125 V -46.125 C 48,-191.28677 68.7652,-212 214.0625,-212 Z" style="fill:#8c59d9"/>
  </clipPath>
  <filter style="color-interpolation-filters:sRGB" id="filter1655" width="1.083" height="1.115" x="-.04" y="-.06">
   <feGaussianBlur stdDeviation=".728"/>
  </filter>
 </defs>
 <g transform="translate(0,-229.26666)">
  <path d="m 188.96876,43.999995 c 72.64865,0 83.03125,10.356615 83.03125,82.937505 v 58.125 c 0,72.58059 -10.3826,82.9375 -83.03125,82.9375 h -73.9375 C 42.382606,268 32.000006,257.64309 32.000006,185.0625 v -58.125 c 0,-72.58089 10.3826,-82.937505 83.031254,-82.937505 z" transform="matrix(0.26458334,0,0,0.26458334,-6.9934685,221.97262)" style="opacity:0.1;filter:url(#filter4569)"/>
  <path style="opacity:0.2;filter:url(#filter1132)" d="m 188.96876,45.999995 c 72.64865,0 83.03125,10.356615 83.03125,82.937505 v 58.125 c 0,72.58059 -10.3826,82.9375 -83.03125,82.9375 h -73.9375 C 42.382606,270 32.000006,259.64309 32.000006,187.0625 v -58.125 c 0,-72.58089 10.3826,-82.937505 83.031254,-82.937505 z" transform="matrix(0.26458334,0,0,0.26458334,-6.9934685,221.97262)"/>
  <path style="fill:#a0a0a0" d="m 43.004516,233.61429 c 19.221623,0 21.968686,2.74018 21.968686,21.94388 v 15.37891 c 0,19.20362 -2.747063,21.94387 -21.968686,21.94387 H 23.441884 c -19.2216226,0 -21.9686857,-2.74025 -21.9686857,-21.94387 v -15.37891 c 0,-19.2037 2.7470631,-21.94388 21.9686857,-21.94388 z"/>
  <path style="opacity:0.1;fill:#ffffff" d="M 5.5683594 128.16211 L 5.5683594 157.49414 C 5.5683594 166.56672 5.7304589 174.6671 6.15625 181.89648 C 6.3691456 185.51118 6.6485154 188.90773 7.0058594 192.09961 C 7.3632033 195.29149 7.7990459 198.27982 8.3261719 201.07422 C 8.8532979 203.86862 9.4711176 206.47034 10.193359 208.89258 C 10.915601 211.31482 11.740902 213.5574 12.683594 215.63281 C 13.626285 217.70822 14.686525 219.61524 15.875 221.36914 C 17.063475 223.12305 18.380252 224.72392 19.839844 226.18164 C 21.299435 227.63936 22.902161 228.95376 24.658203 230.14062 C 26.414245 231.32749 28.324517 232.38679 30.402344 233.32812 C 32.48017 234.26946 34.725446 235.09332 37.150391 235.81445 C 39.575335 236.53559 42.179166 237.15343 44.976562 237.67969 C 47.773959 238.20594 50.763802 238.64134 53.958984 238.99805 C 57.154166 239.35475 60.555527 239.63323 64.173828 239.8457 C 71.41043 240.27066 79.518528 240.43164 88.599609 240.43164 L 162.53711 240.43164 C 171.61819 240.43164 179.72629 240.27066 186.96289 239.8457 C 190.58119 239.63323 193.9806 239.35475 197.17578 238.99805 C 200.37096 238.64134 203.36081 238.20594 206.1582 237.67969 C 208.9556 237.15343 211.56138 236.53559 213.98633 235.81445 C 216.41127 235.09332 218.65655 234.26946 220.73438 233.32812 C 222.8122 232.38679 224.72247 231.32749 226.47852 230.14062 C 228.23456 228.95376 229.83533 227.63936 231.29492 226.18164 C 232.75451 224.72392 234.07324 223.12305 235.26172 221.36914 C 236.45019 219.61524 237.50848 217.70822 238.45117 215.63281 C 239.39386 213.5574 240.22112 211.31482 240.94336 208.89258 C 241.6656 206.47034 242.28342 203.86862 242.81055 201.07422 C 243.33767 198.27982 243.77352 195.29149 244.13086 192.09961 C 244.4882 188.90773 244.76757 185.51118 244.98047 181.89648 C 245.40626 174.6671 245.56836 166.56672 245.56836 157.49414 L 245.56836 128.16211 L 5.5683594 128.16211 z" transform="matrix(0.26458333,0,0,0.26458333,0,229.26666)"/>
  <path style="opacity:0.1;fill:#ffffff" d="M 240.21094 216.46875 C 239.43594 218.02853 238.65047 219.57114 237.72461 220.9375 C 236.53613 222.6914 235.21936 224.29032 233.75977 225.74805 C 232.30017 227.20577 230.69745 228.52212 228.94141 229.70898 C 227.18536 230.89585 225.27509 231.95319 223.19727 232.89453 C 221.11944 233.83587 218.87416 234.66168 216.44922 235.38281 C 214.02427 236.10395 211.42044 236.72179 208.62305 237.24805 C 205.82565 237.7743 202.83581 238.2097 199.64062 238.56641 C 196.44544 238.92311 193.04408 239.20159 189.42578 239.41406 C 182.18918 239.83902 174.08108 240 165 240 L 127.32031 240 L 127.32031 241.97656 L 163.03125 241.97656 C 172.25009 241.97656 180.47979 241.81259 187.82617 241.38086 C 191.49936 241.16505 194.95167 240.88394 198.19531 240.52148 C 201.43897 240.15903 204.47462 239.71641 207.31445 239.18164 C 210.15428 238.64684 212.79803 238.01797 215.25977 237.28516 C 217.7215 236.55234 220.00198 235.71437 222.11133 234.75781 C 224.22067 233.80118 226.15873 232.72565 227.94141 231.51953 C 229.7241 230.31341 231.3503 228.97549 232.83203 227.49414 C 234.31376 226.01275 235.65092 224.38782 236.85742 222.60547 C 238.06392 220.82316 239.14066 218.88444 240.09766 216.77539 C 240.1405 216.68096 240.16856 216.56387 240.21094 216.46875 z" transform="matrix(0.26458333,0,0,0.26458333,0,229.26666)"/>
  <path d="M 361.9375,-212 C 507.2348,-212 528,-191.28677 528,-46.125 V 70.125 C 528,215.28618 507.2348,236 361.9375,236 H 214.0625 C 68.7652,236 48,215.28618 48,70.125 V -46.125 C 48,-191.28677 68.7652,-212 214.0625,-212 Z" clip-path="url(#clipPath1082-3-93)" transform="matrix(0.13229167,0,0,0.13229167,-4.8768011,261.66012)" style="opacity:0.6;fill:none;stroke:url(#linearGradient1108-7);stroke-width:8;stroke-linecap:round;stroke-linejoin:round"/>
  <g transform="matrix(0.98100004,0,0,0.98100004,1.7859888e-7,12.616987)">
   <rect style="opacity:0.3;fill:#00132b;filter:url(#filter1655)" width="42.333" height="30.427" x="12.7" y="247.42" rx="1.027" ry="1.071"/>
   <rect width="42.333" height="30.427" x="12.7" y="247.42" rx="1.027" ry="1.071" style="opacity:0.7;fill:#a3dbf0"/>
   <g transform="translate(0.05602711,1.7237401)">
    <rect style="opacity:0.7;fill:#ffffff" width="29.087" height="5.801" x="19.32" y="267.14" rx="1.058" ry="1.058"/>
    <path style="opacity:0.8" d="m 21.035156,268.16109 v 3.96875 h 0.263672 v -3.96875 z"/>
    <rect width="29.087" height="5.801" x="19.32" y="253.38" rx="1.058" ry="1.058" style="opacity:0.7;fill:#ffffff"/>
    <path d="m 21.035156,254.40267 v 3.96875 h 0.263672 v -3.96875 z" style="opacity:0.8"/>
    <text style="font-size:10.58333302px;line-height:1.25;letter-spacing:0px;word-spacing:0px" x="18.86" y="251.84" xml:space="preserve">
     <tspan x="18.86" y="251.84" style="font-size:4.23333311px;font-family:'Overpass Mono'">Username</tspan>
    </text>
    <text x="18.86" y="265.07" xml:space="preserve" style="font-size:10.58333302px;line-height:1.25;letter-spacing:0px;word-spacing:0px">
     <tspan style="font-size:4.23333311px;font-family:'Overpass Mono'" x="18.86" y="265.07">Password</tspan>
    </text>
   </g>
   <path class="ColorScheme-Text" d="m 38.594176,231.37498 c -2.584035,0 -3.06878,3.92556 -1.614894,3.92556 1.453224,0 4.199213,-3.92556 1.614894,-3.92556 z m -3.979089,0.60351 c -0.04072,-1.9e-4 -0.08523,-2.2e-4 -0.131035,0.009 -1.46428,0.18492 -0.949363,2.66312 -0.169796,2.70932 0.754818,0.0454 1.579902,-2.71235 0.298988,-2.7167 z m -2.539529,0.91541 c -0.08958,-0.009 -0.188582,0.0119 -0.298988,0.0573 -1.177018,0.48324 -0.179048,2.47798 0.47986,2.3439 0.598063,-0.12152 0.684062,-2.34489 -0.180872,-2.40112 z m -1.921253,1.63149 c -0.102299,0 -0.212309,0.0318 -0.33036,0.11997 -0.942115,0.70313 0.316762,2.40239 0.871112,2.13904 0.484896,-0.23066 0.175551,-2.23312 -0.540752,-2.25901 z m 5.564445,1.62043 c -2.041356,-0.035 -4.734059,1.00109 -5.193489,3.08213 -0.497115,2.25151 2.047562,5.3762 4.702563,5.3762 1.306097,0 2.812985,-1.19401 3.09505,-2.70563 0.21523,-1.15264 -2.534832,-0.6905 -2.43618,0.072 0.118552,0.91422 -0.66143,1.36625 -1.426633,0.77698 -2.435775,-1.87618 4.033006,-2.81304 3.606272,-5.37619 -0.132802,-0.79791 -1.122751,-1.2045 -2.347583,-1.22548 z" style="clip-rule:evenodd;fill:#4c4c4c;fill-rule:evenodd;image-rendering:optimizeQuality;shape-rendering:geometricPrecision;text-rendering:geometricPrecision"/>
  </g>
 </g>
</svg>
